X: 20712
T: FLY HORNPIPE
C:
%R: hornpipe, reel
B: Elias Howe "The Musician's Companion" 1843 p.71 #2
S: http://imslp.org/wiki/The_Musician's_Companion_(Howe,_Elias)
Z: 2015 John Chambers <jc:trillian.mit.edu>
M: 2/4
L: 1/16
K: E
% - - - - - - - - - - - - - - - - - - - - - - - - -
(3(Bcd) |\
e2e2 defd | eBge b2gb | e2e2 defg | fedc Bagf |\
e2e2 defd | eBge b3g | afge fdBd | e2e2e2 :|
|: (ba) |\
gagf e2Bd | f2g2a3g | fgfe d2B2 | eBgB g3B |\
cAce agab | agfe dfba | gfed Bgfd | e2e2e2 :|
% - - - - - - - - - - - - - - - - - - - - - - - - -

%%sep 1 1 500

